X: 1047
T: the Fisherman's Frolic
R: double jig
B: O'Neill's 1850 #1047
O: F.O'Neill
Z: henrik.norbeck@mailbox.swipnet.se
M: 6/8
L: 1/8
K: D
A |\
Add d>cd | f>ee e2g | fed dfd | e>cA A2A |\
Add d>cd | f>ee e2g | fed (f<a)A | ABc d2 :|
|: a |\
afd dfa | agf g2a | afd dfd | ecA A(B/c/) |\
dcd e^de | f^ef g2(a/g/) | f>ed (f<a)A | ABc d2 :|
